src/img/icons/kdenlive.svg

<svg xmlns="http://www.w3.org/2000/svg" xmlns:xlink="http://www.w3.org/1999/xlink" width="384pt" height="384pt" version="1.1" viewBox="0 0 384 384"> <defs> <filter id="alpha" width="100%" height="100%" x="0%" y="0%" filterUnits="objectBoundingBox"> <feColorMatrix in="SourceGraphic" type="matrix" values="0 0 0 0 1 0 0 0 0 1 0 0 0 0 1 0 0 0 1 0"/> </filter> <mask id="mask0"> <g filter="url(#alpha)"> <rect width="384" height="384" x="0" y="0" style="fill:rgb(0%,0%,0%);fill-opacity:0.301961"/> </g> </mask> <clipPath id="clip1"> <rect width="384" height="384" x="0" y="0"/> </clipPath> <g id="surface5" clip-path="url(#clip1)"> <path style="fill:rgb(0%,0%,0%)" d="M 12 335.800781 L 12 349.492188 L 371.992188 349.492188 L 371.992188 335.800781 Z M 12 335.800781"/> </g> <mask id="mask1"> <g filter="url(#alpha)"> <rect width="384" height="384" x="0" y="0" style="fill:rgb(0%,0%,0%);fill-opacity:0.301961"/> </g> </mask> <clipPath id="clip2"> <rect width="384" height="384" x="0" y="0"/> </clipPath> <g id="surface8" clip-path="url(#clip2)"> <path style="fill-rule:evenodd;fill:rgb(0%,0%,0%)" d="M 137.996094 88.496094 L 137.996094 106.496094 L 164.996094 106.496094 L 164.996094 88.496094 Z M 110.996094 124.496094 L 110.996094 142.496094 L 164.996094 142.496094 L 164.996094 124.496094 Z M 66 160.496094 L 66 178.496094 L 164.996094 178.496094 L 164.996094 160.496094 Z M 30 196.496094 L 30 214.496094 L 164.996094 214.496094 L 164.996094 196.496094 Z M 66 232.496094 L 66 250.492188 L 164.996094 250.492188 L 164.996094 232.496094 Z M 110.996094 268.492188 L 110.996094 286.492188 L 164.996094 286.492188 L 164.996094 268.492188 Z M 110.996094 268.492188"/> </g> <mask id="mask2"> <g filter="url(#alpha)"> <rect width="384" height="384" x="0" y="0" style="fill:rgb(0%,0%,0%);fill-opacity:0.101961"/> </g> </mask> <clipPath id="clip3"> <rect width="384" height="384" x="0" y="0"/> </clipPath> <g id="surface11" clip-path="url(#clip3)"> <path style="fill:rgb(0%,0%,0%)" d="M 245.992188 24.707031 L 137.996094 24.707031 L 191.996094 96.707031 L 218.996094 60.707031 Z M 245.992188 24.707031"/> </g> <mask id="mask3"> <g filter="url(#alpha)"> <rect width="384" height="384" x="0" y="0" style="fill:rgb(0%,0%,0%);fill-opacity:0.4"/> </g> </mask> <linearGradient id="linear0" x1="21.262" x2="34.74" y1="4.028" y2="17.506" gradientTransform="matrix(8.999779,0,0,8.999779,-23.999413,-19.499506)" gradientUnits="userSpaceOnUse"> <stop offset="0" style="stop-color:rgb(0%,0%,0%)"/> <stop offset="1" style="stop-color:rgb(0%,0%,0%);stop-opacity:0"/> </linearGradient> <clipPath id="clip4"> <rect width="384" height="384" x="0" y="0"/> </clipPath> <g id="surface14" clip-path="url(#clip4)"> <path style="fill:url(#linear0)" d="M 245.835938 16.691406 L 185.542969 21.808594 L 160.671875 36.238281 L 191.820312 88.25 L 371.992188 268.441406 L 371.992188 142.515625 L 272.976562 43.5 L 225.746094 43.5 Z M 245.835938 16.691406"/> </g> <mask id="mask4"> <g filter="url(#alpha)"> <rect width="384" height="384" x="0" y="0" style="fill:rgb(0%,0%,0%);fill-opacity:0.4"/> </g> </mask> <linearGradient id="linear1" x1="32.266" x2="42.889" y1="20.126" y2="30.749" gradientTransform="matrix(8.999779,0,0,8.999779,-32.999192,-19.499506)" gradientUnits="userSpaceOnUse"> <stop offset="0" style="stop-color:rgb(0%,0%,0%)"/> <stop offset="1" style="stop-color:rgb(0%,0%,0%);stop-opacity:0"/> </linearGradient> <clipPath id="clip5"> <rect width="384" height="384" x="0" y="0"/> </clipPath> <g id="surface17" clip-path="url(#clip5)"> <path style="fill:url(#linear1)" d="M 261.285156 154.152344 L 245.0625 209.1875 L 239.929688 274.523438 L 314.898438 349.492188 L 371.992188 349.492188 L 371.992188 218.855469 L 341.863281 188.726562 Z M 261.285156 154.152344"/> </g> <mask id="mask5"> <g filter="url(#alpha)"> <rect width="384" height="384" x="0" y="0" style="fill:rgb(0%,0%,0%);fill-opacity:0.301961"/> </g> </mask> <clipPath id="clip6"> <rect width="384" height="384" x="0" y="0"/> </clipPath> <g id="surface20" clip-path="url(#clip6)"> <path style="fill:rgb(0%,0%,0%)" d="M 251.25 120.433594 C 246.832031 120.703125 242.074219 125.074219 242.085938 129.917969 L 241.917969 272.925781 C 241.917969 279.382812 250.371094 285.003906 255.203125 281.167969 L 346.273438 209.417969 C 351.136719 205.628906 351.125 196.738281 346.273438 192.933594 L 255.371094 121.675781 C 254.160156 120.726562 252.726562 120.347656 251.253906 120.433594 Z M 251.25 120.433594"/> </g> </defs> <g> <path style="fill:rgb(21.960%,23.529%,29.019%)" d="M 12 43.5 L 371.992188 43.5 L 371.992188 349.492188 L 12 349.492188 Z M 12 43.5"/> <use mask="url(#mask0)" xlink:href="#surface5"/> <use mask="url(#mask1)" xlink:href="#surface8"/> <path style="fill:rgb(83.137%,9.803%,9.803%)" d="M 182.996094 25.5 L 183.347656 367.492188 L 200.996094 367.492188 L 200.996094 25.5 Z M 182.996094 25.5"/> <use mask="url(#mask2)" xlink:href="#surface11"/> <path style="fill-rule:evenodd;fill:rgb(29.019%,68.235%,90.196%)" d="M 137.996094 97.496094 L 137.996094 115.496094 L 164.996094 115.496094 L 164.996094 97.496094 Z M 110.996094 133.496094 L 110.996094 151.496094 L 164.996094 151.496094 L 164.996094 133.496094 Z M 66 169.496094 L 66 187.496094 L 164.996094 187.496094 L 164.996094 169.496094 Z M 30 205.496094 L 30 223.496094 L 164.996094 223.496094 L 164.996094 205.496094 Z M 66 241.492188 L 66 259.492188 L 164.996094 259.492188 L 164.996094 241.492188 Z M 110.996094 277.492188 L 110.996094 295.492188 L 164.996094 295.492188 L 164.996094 277.492188 Z M 110.996094 277.492188"/> <use mask="url(#mask3)" xlink:href="#surface14"/> <path style="fill:rgb(83.137%,9.803%,9.803%)" d="M 245.992188 16.5 L 137.996094 16.5 L 164.996094 52.5 L 191.996094 88.496094 L 218.996094 52.5 Z M 245.992188 16.5"/> <use mask="url(#mask4)" xlink:href="#surface17"/> <use mask="url(#mask5)" xlink:href="#surface20"/> <path style="fill:rgb(21.176%,48.235%,94.117%)" d="M 246.324219 115.507812 C 241.90625 115.777344 237.148438 120.148438 237.160156 124.992188 L 236.996094 268 C 236.996094 274.457031 245.445312 280.078125 250.277344 276.242188 L 341.347656 204.492188 C 346.210938 200.703125 346.199219 191.816406 341.347656 188.007812 L 250.445312 116.75 C 249.234375 115.800781 247.800781 115.421875 246.328125 115.507812 Z M 246.324219 115.507812"/> </g> </svg>

<svg width="512" height="512" version="1.1" viewBox="0 0 384 384" xmlns="http://www.w3.org/2000/svg" xmlns:xlink="http://www.w3.org/1999/xlink"><defs><filter id="alpha" x="0%" y="0%" width="100%" height="100%"><feColorMatrix in="SourceGraphic" values="0 0 0 0 1 0 0 0 0 1 0 0 0 0 1 0 0 0 1 0"/></filter><clipPath><rect width="384" height="384"/></clipPath><clipPath><rect width="384" height="384"/></clipPath><clipPath><rect width="384" height="384"/></clipPath><mask id="d"><g filter="url(#alpha)"><rect width="384" height="384" fill-opacity=".4"/></g></mask><linearGradient id="f" x1="21.262" x2="34.74" y1="4.028" y2="17.506" gradientTransform="matrix(8.9998 0 0 8.9998 -23.999 -19.5)" gradientUnits="userSpaceOnUse"><stop offset="0"/><stop stop-opacity="0" offset="1"/></linearGradient><clipPath id="h"><rect width="384" height="384"/></clipPath><g id="b" clip-path="url(#h)"><path d="m245.84 16.691-60.293 5.1172-24.871 14.43 31.148 52.012 180.17 180.19v-125.93l-99.016-99.016h-47.23z" fill="url(#f)"/></g><mask id="c"><g filter="url(#alpha)"><rect width="384" height="384" fill-opacity=".4"/></g></mask><linearGradient id="e" x1="32.266" x2="42.889" y1="20.126" y2="30.749" gradientTransform="matrix(8.9998 0 0 8.9998 -32.999 -19.5)" gradientUnits="userSpaceOnUse"><stop offset="0"/><stop stop-opacity="0" offset="1"/></linearGradient><clipPath id="g"><rect width="384" height="384"/></clipPath><g id="a" clip-path="url(#g)"><path d="m261.29 154.15-16.223 55.035-5.1328 65.336 74.969 74.969h57.094v-130.64l-30.129-30.129z" fill="url(#e)"/></g><clipPath><rect width="384" height="384"/></clipPath></defs><path d="m12 43.5h359.99v305.99h-359.99z" fill="#353a4a"/><path transform="scale(.75)" d="m16 445.99v20h479.99v-20h-479.99z" opacity=".3" stroke-width="1.3333"/><path d="m183 25.5 0.35157 341.99h17.648v-341.99z" fill="#d41717"/><path d="m138 89.996v18h27v-18zm-27 36v18h54v-18zm-44.996 36v18h98.996v-18zm-36 36v18h135v-18zm36 35.996v18h98.996v-18zm44.996 36v18h54v-18z" fill-rule="evenodd" opacity=".3"/><path d="m138 97.496v18h27v-18zm-27 36v18h54v-18zm-44.996 36v18h98.996v-18zm-36 36v18h135v-18zm36 35.996v18h98.996v-18zm44.996 36v18h54v-18z" fill="#4aaee6" fill-rule="evenodd"/><use width="100%" height="100%" mask="url(#d)" xlink:href="#b"/><path d="m245.99 24h-108l27 36 27 35.996 27-35.996z" opacity=".3"/><path d="m245.99 16.5h-108l27 36 27 35.996 27-35.996z" fill="#d41717"/><use width="100%" height="100%" mask="url(#c)" xlink:href="#a"/><path d="m246.32 123.01c-4.418 0.26953-9.1758 4.6406-9.1641 9.4844l-0.16407 143.01c0 6.457 8.4492 12.078 13.281 8.2422l91.07-71.75c4.8633-3.7891 4.8516-12.676 0-16.484l-90.902-71.258c-1.2109-0.94922-2.6445-1.3281-4.1172-1.2422z" opacity=".3"/><path d="m246.32 115.51c-4.418 0.26953-9.1758 4.6406-9.1641 9.4844l-0.16407 143.01c0 6.457 8.4492 12.078 13.281 8.2422l91.07-71.75c4.8633-3.7891 4.8516-12.676 0-16.484l-90.902-71.258c-1.2109-0.94922-2.6445-1.3281-4.1172-1.2422z" fill="#357af0"/></svg>
